X: 12
T: the Red Haired Girl - 1st Setting   #2
R: air
%S: s:2 b:8(4+4)
B: O'Neill's 1850 #12
O: F.O'Neill
Z: Norbert Paap, norbertp@bdu.uva.nl
N: Compacted by using labels and play order [JC]
P: Play A1A2 BA2
Q: "With feeling"
M: 3/4
L: 1/8
K: D
"^A"|: (A/2G/2 FE) | D2 (FG) (AB/2c/2) | d2 (ed/2c/2) (AG) | F2 (DE) [1 (DB,) | C2 z :|[2 DD | "^fine"D3 |]
"^B"[| (F/2G/2 .A.A) | f2 (de) (dc) | (d2 ed/2c/2) (AG) | F2 (DE) (DB,) | C2 "->A2"z |]
